X: 22766
T: Lang Stayed Away
R: three-two
M: 3/2
K: Aminor
e2c2 c2{a}g2 e4|e2A2 A2c2 BcdB|e2c2 c2{a}g2 e3^c|d2G2 G2c2 BcdB:|
|:c4 c2g2 ~c4|e2A2- A2cA BcdB|c4 c2g2 ~c4|d2G2- G2c2 BcdB:|
|:cdec BcdB A4|E2A2 A2c2 BcdB|cdec BcdB A3A|B2G2 G2c2 BcdB:|

